app/assets/SVG/shop_invite_promoter.svg

<?xml version="1.0" encoding="UTF-8"?>
<svg width="32px" height="32px" viewBox="0 0 32 32" version="1.1" xmlns="http://www.w3.org/2000/svg" xmlns:xlink="http://www.w3.org/1999/xlink">
    <!-- Generator: Sketch 46.1 (44463) - http://www.bohemiancoding.com/sketch -->
    <title>shop_invite_promoter</title>
    <desc>Created with Sketch.</desc>
    <defs></defs>
    <g id="04_promoter_03" stroke="none" stroke-width="1" fill="none" fill-rule="evenodd">
        <g id="icon" transform="translate(-44.000000, -130.000000)" fill="#606060">
            <g id="shop_invite" transform="translate(44.000000, 130.000000)">
                <path d="M8.15735795,27.6420455 C6.75005682,27.6420455 5.60511364,26.4998864 5.60511364,25.0959659 L5.60511364,20.3693182 C5.60511364,19.7417045 6.11389205,19.2329545 6.74147727,19.2329545 C7.3690625,19.2329545 7.87784091,19.7417045 7.87784091,20.3693182 L7.87784091,25.0959659 C7.87784091,25.2415909 8.00846591,25.3693182 8.15735795,25.3693182 L24.8509659,25.3693182 C24.9968466,25.3690057 25.1221591,25.2438352 25.1221591,25.0959659 L25.1221591,20.3693182 C25.1221591,19.7417045 25.6309091,19.2329545 26.2585227,19.2329545 C26.8861364,19.2329545 27.3948864,19.7417045 27.3948864,20.3693182 L27.3948864,25.0959659 C27.3948864,26.496875 26.2547727,27.6390625 24.8534091,27.6420455 L8.15735795,27.6420455 Z" id="Shape"></path>
                <path d="M9.1328125,18.9204545 L9.13076705,18.9204545 C8.24224432,18.9202841 7.44539773,18.7405682 6.76238636,18.3863068 L6.73204545,18.3705682 L6.71042614,18.357642 C5.03960227,17.462983 4.001875,15.7323295 4,13.8379545 C4,13.3014205 4.08460227,12.7676989 4.25147727,12.250142 C4.2528125,12.243892 4.25411932,12.2380398 4.25534091,12.2325852 L4.27769886,12.1337216 L6.51235795,6.85380682 C6.90051136,5.70997159 7.96122159,5 9.28352273,5 L23.7770739,5 C24.4194886,5.00142045 25.0195739,5.16997159 25.515,5.48747159 C26.0458239,5.82767045 26.4316477,6.31860795 26.6311932,6.9075 L28.6967614,12.049517 L28.733608,12.1422443 L28.7578409,12.2613636 C28.9186932,12.7577841 29.0023295,13.2948295 28.9999432,13.8164205 L28.9999432,13.8187784 C29.0008523,15.6973295 27.9771875,17.4242898 26.3284091,18.3251989 C25.6313636,18.707358 24.8073295,18.9040625 23.8805966,18.9090057 L23.8739205,18.9090341 C22.4628125,18.9082955 21.1307386,18.3367045 20.1704261,17.3303693 C19.2211932,18.3260227 17.9081534,18.8984375 16.5195739,18.9115909 L16.509858,18.9116761 L16.5001705,18.9116193 C15.1030966,18.9010227 13.7831534,18.3301136 12.8300568,17.3343466 C11.8700284,18.341392 10.5407955,18.9156818 9.13482955,18.9204545 L9.1328125,18.9204545 Z M7.82923295,16.3792898 C8.181875,16.5570739 8.61900568,16.6473864 9.12897727,16.6477273 C9.97286932,16.6443466 10.7661648,16.2739205 11.3056818,15.6313068 C11.6843182,15.1803125 12.2391761,14.9214205 12.8280114,14.9209091 C13.4178409,14.9209091 13.9725568,15.1789205 14.3515341,15.6288068 C14.8848295,16.2619602 15.6701705,16.6297159 16.507642,16.6388636 C17.336392,16.6282386 18.1152557,16.2599716 18.6458239,15.6275 C19.0247159,15.1758239 19.5802273,14.9166477 20.1698864,14.9165057 L20.1703409,14.9165057 C20.7597727,14.9165057 21.3151705,15.1753977 21.6942614,15.6268466 C22.2318182,16.2671591 23.0253693,16.6349432 23.8719886,16.6363068 C24.4151705,16.6329545 24.8744886,16.5304261 25.2372443,16.3315625 C26.157358,15.8288068 26.7277557,14.8664773 26.7272159,13.8193466 L26.7272443,13.8078977 C26.7287784,13.5205682 26.6821591,13.2246307 26.5925284,12.9520455 C26.5761932,12.9024432 26.5617614,12.851875 26.5493182,12.8007955 L24.5191761,7.74704545 C24.5050284,7.71184659 24.4914773,7.67511364 24.4791193,7.63823864 C24.3657386,7.30028409 23.9111932,7.27303977 23.7745739,7.27272727 L9.28352273,7.27272727 C9.04869318,7.27272727 8.75059659,7.32707386 8.66394886,7.58588068 C8.64784091,7.63403409 8.62951705,7.68247159 8.60960227,7.72960227 L6.44678977,12.8397159 C6.4378125,12.8731818 6.42786932,12.9066193 6.41713068,12.9396023 C6.32133523,13.2338068 6.27272727,13.535767 6.27272727,13.8368466 C6.27377841,14.8928977 6.85375,15.8585511 7.78633523,16.3557386 C7.80034091,16.3631818 7.81477273,16.371108 7.82923295,16.3792898 Z" id="Shape"></path>
                <path d="M22.6079545,12.4431818 L10.3920455,12.4431818 C9.76446023,12.4431818 9.25568182,11.9344034 9.25568182,11.3068182 C9.25568182,10.679233 9.76446023,10.1704545 10.3920455,10.1704545 L22.6079545,10.1704545 C23.2355682,10.1704545 23.7443182,10.679233 23.7443182,11.3068182 C23.7443182,11.9344034 23.2355682,12.4431818 22.6079545,12.4431818 Z" id="Shape"></path>
            </g>
        </g>
    </g>
</svg>

<svg width="32" height="32" viewBox="0 0 32 32" xmlns="http://www.w3.org/2000/svg"><title>shop_invite_promoter</title><g fill="#606060" fill-rule="evenodd"><path d="M8.157 27.642a2.552 2.552 0 0 1-2.552-2.546v-4.727a1.136 1.136 0 1 1 2.273 0v4.727c0 .146.13.273.28.273H24.85a.277.277 0 0 0 .271-.273v-4.727a1.136 1.136 0 1 1 2.273 0v4.727a2.55 2.55 0 0 1-2.542 2.546H8.157zM9.133 18.92H9.13c-.889 0-1.686-.18-2.369-.534l-.03-.015-.022-.013a5.124 5.124 0 0 1-2.459-6.108l.004-.017.023-.1 2.234-5.28C6.901 5.71 7.962 5 9.284 5h14.493a3.22 3.22 0 0 1 1.738.487c.53.34.917.832 1.116 1.42l2.066 5.143.037.092.024.12A5.03 5.03 0 0 1 29 13.815v.003a5.13 5.13 0 0 1-2.672 4.506c-.697.382-1.52.58-2.447.584h-.007a5.11 5.11 0 0 1-3.704-1.579 5.105 5.105 0 0 1-3.65 1.582h-.02a5.126 5.126 0 0 1-3.67-1.578 5.12 5.12 0 0 1-3.695 1.586h-.002zm-1.304-2.54c.353.177.79.267 1.3.268a2.85 2.85 0 0 0 2.177-1.017 1.987 1.987 0 0 1 3.046-.003c.533.634 1.318 1.002 2.156 1.01a2.833 2.833 0 0 0 2.138-1.01c.379-.452.934-.711 1.524-.711s1.145.258 1.524.71a2.84 2.84 0 0 0 2.178 1.01c.543-.004 1.002-.107 1.365-.305a2.86 2.86 0 0 0 1.49-2.513v-.011a2.727 2.727 0 0 0-.134-.856 1.99 1.99 0 0 1-.044-.151l-2.03-5.054a1.984 1.984 0 0 1-.04-.109c-.113-.338-.568-.365-.704-.365H9.284c-.235 0-.533.054-.62.313a2.007 2.007 0 0 1-.054.144l-2.163 5.11a1.982 1.982 0 0 1-.03.1 2.854 2.854 0 0 0 1.412 3.44z"/><path d="M22.608 12.443H10.392a1.136 1.136 0 0 1 0-2.273h12.216a1.136 1.136 0 1 1 0 2.273z"/></g></svg>
